Origami/64x64/apps/itmages.svg

<svg width="64" height="64" version="1" xmlns="http://www.w3.org/2000/svg">
 <rect transform="matrix(0,-1,-1,0,0,0)" x="-61" y="-60" width="55.999" height="55.999" rx="2.8" ry="2.8" style="opacity:.2"/>
 <rect transform="matrix(0,-1,-1,0,0,0)" x="-60" y="-60" width="55.999" height="55.999" rx="2.8" ry="2.8" style="fill:#0081ff"/>
 <path d="m15.999829 17.000457v31.999543h5.999914v-31.999543h-5.999914zm13.9998 0v5.999914h5.999914v25.999629h5.999914v-25.999629h5.999914v-5.999914h-17.999742z" style="opacity:.2"/>
 <g transform="matrix(1.9999714,0,0,1.9999714,5.760572e-5,8.866e-4)" style="fill:#8addff">
  <path d="m8 8h3v16h-3z"/>
  <path d="m18 8h3v16h-3z"/>
  <path d="m24 8v3h-9v-3z"/>
 </g>
 <path d="m6.8007812 4c-1.5511778 0-2.8007812 1.2496034-2.8007812 2.8007812v1.0019532c0-1.5511778 1.2496034-2.8007813 2.8007812-2.8007813h50.398438c1.549977 0 2.800781 1.2496035 2.800781 2.8007813v-1.0019532c0-1.5511777-1.250804-2.8007812-2.800781-2.8007812h-50.398438z" style="fill:#ffffff;opacity:.2"/>
</svg>

<svg xmlns="http://www.w3.org/2000/svg" width="64" height="64" version="1">
 <rect style="opacity:0.2" width="55.999" height="55.999" x="-61" y="-60" rx="2.8" ry="2.8" transform="matrix(0,-1,-1,0,0,0)"/>
 <rect style="fill:#0081ff" width="55.999" height="55.999" x="-60" y="-60" rx="2.8" ry="2.8" transform="matrix(0,-1,-1,0,0,0)"/>
 <path style="opacity:0.2" d="m 15.999829,17.000457 0,31.999543 5.999914,0 0,-31.999543 -5.999914,0 z m 13.9998,0 0,5.999914 5.999914,0 0,25.999629 5.999914,0 0,-25.999629 5.999914,0 0,-5.999914 -17.999742,0 z"/>
 <g style="fill:#8addff" transform="matrix(1.9999714,0,0,1.9999714,5.760572e-5,8.866e-4)">
  <path d="m 8,8 3,0 0,16 -3,0 z"/>
  <path d="m 18,8 3,0 0,16 -3,0 z"/>
  <path d="m 24,8 0,3 -9,0 0,-3 z"/>
 </g>
 <path style="opacity:0.2;fill:#ffffff" d="M 6.8007812 4 C 5.2496034 4 4 5.2496034 4 6.8007812 L 4 7.8027344 C 4 6.2515566 5.2496034 5.0019531 6.8007812 5.0019531 L 57.199219 5.0019531 C 58.749196 5.0019531 60 6.2515566 60 7.8027344 L 60 6.8007812 C 60 5.2496035 58.749196 4 57.199219 4 L 6.8007812 4 z"/>
</svg>
